X: 36511
T: Sergeant Early's Dream
R: reel
M: 4/4
K: Ddorian
|:dc|ADDE FAcA|GECD ~E3F|DA, DE FEFG|Adde fedc|
ADDE FAcA|GECD ED^CE|DA,DE FAcA|GECE D2:|
|:FG|Addc d2Ad|f2ed cAGF|ECEG cBcd|eced cABG|
Addc d2Ad|f2ed cAFA|GEcE dEcE|ED^CE D2:|

